X: 6
T: a Peep at the Jubelee
R: march
M: 2/4
L: 1/8
Z: 2010,2014 John Chambers <jc:trillian.mit.edu>
B: Longman ed. "Twenty Four Country Dances", p.27 London 1770
K: Bb
|: dff2 | dff2 | bfdB | cFF2 | dff2 | dff2 | bfdB | Tc2B2 :|
|: Acc2 | Acc2 | edcB | cFF2 | Acc2 | Acce | dBFA | B2B,2 :|
% - - - - - - - - - - - - - - - - - - - - - - - - -
%%begintext align
%% The two first Men lead in Between the two first
%% Women and foot it Back to their own place .|
%% the two first Women do the same with the Men .|.
%% Cross over one Cu: :|. foot to the 3d lead
%% ???? the Top and Cast off :|:
%%endtext
% - - - - - - - - - - - - - - - - - - - - - - - - -
